icons/outline/brightness-auto.svg

<svg xmlns="http://www.w3.org/2000/svg" width="24" height="24" viewBox="0 0 24 24" fill="none" stroke="currentColor" stroke-width="2" stroke-linecap="round" stroke-linejoin="round"><path d="M6 6h3.5l2.5 -2.5l2.5 2.5h3.5v3.5l2.5 2.5l-2.5 2.5v3.5h-3.5l-2.5 2.5l-2.5 -2.5h-3.5v-3.5l-2.5 -2.5l2.5 -2.5z"/><path d="M10 14.5v-3.5a2 2 0 1 1 4 0v3.5"/><path d="M10 13h4"/></svg>

<svg xmlns="http://www.w3.org/2000/svg" width="24" height="24" fill="none" stroke="currentColor" stroke-linecap="round" stroke-linejoin="round" stroke-width="2"><path d="M6 6h3.5L12 3.5 14.5 6H18v3.5l2.5 2.5-2.5 2.5V18h-3.5L12 20.5 9.5 18H6v-3.5L3.5 12 6 9.5z"/><path d="M10 14.5V11a2 2 0 1 1 4 0v3.5M10 13h4"/></svg>
